icon-themes/sifr_svg/cmd/sc_insertcellsdown.svg

<svg viewBox="0 0 16 16" xmlns="http://www.w3.org/2000/svg"><g fill="#555753"><path d="m0 0v15h7v1h9v-9h-10v-2h2v-1h-2v-2h2v-2zm12 0v2.6835938l-.28125-.3710938c-.190301-.18267-.494728-.3125-.71875-.3125h-1v.4121094.5878906c0 .30945.0903.55232.28125.75.769594 1.016078 1.321099 1.524849 1.939453 2.25h1.615235l1.882812-2.25c.19095-.19768.28125-.44055.28125-.75v-.5878906-.4121094h-1c-.256892 0-.528462.12983-.71875.3125l-.28125.3710938v-2.6835938zm-10 2h3v2h-3zm0 3h3v2h-3zm0 3h3v2h-3zm4 0h1v2h-1zm3 1h5v5h-5zm-7 2h3v2h-3zm4 0h1v2h-1z"/><path d="m9 9v5h5v-5z" opacity=".35"/></g></svg>

<svg xmlns="http://www.w3.org/2000/svg" viewBox="0 0 16 16">
  <path
     style="fill:#555753"
     d="M 0 0 L 0 15 L 7 15 L 7 16 L 16 16 L 16 7 L 6 7 L 6 5 L 8 5 L 8 4 L 6 4 L 6 2 L 8 2 L 8 0 L 0 0 z M 12 0 L 12 2.6835938 L 11.71875 2.3125 C 11.528449 2.12983 11.224022 2 11 2 L 10 2 L 10 2.4121094 L 10 3 C 10 3.30945 10.0903 3.55232 10.28125 3.75 C 11.050844 4.766078 11.602349 5.274849 12.220703 6 L 13.835938 6 L 15.71875 3.75 C 15.9097 3.55232 16 3.30945 16 3 L 16 2.4121094 L 16 2 L 15 2 C 14.743108 2 14.471538 2.12983 14.28125 2.3125 L 14 2.6835938 L 14 0 L 12 0 z M 2 2 L 5 2 L 5 4 L 2 4 L 2 2 z M 2 5 L 5 5 L 5 7 L 2 7 L 2 5 z M 2 8 L 5 8 L 5 10 L 2 10 L 2 8 z M 6 8 L 7 8 L 7 10 L 6 10 L 6 8 z M 9 9 L 14 9 L 14 14 L 9 14 L 9 9 z M 2 11 L 5 11 L 5 13 L 2 13 L 2 11 z M 6 11 L 7 11 L 7 13 L 6 13 L 6 11 z "
     />
  <path
     style="opacity:0.35;fill:#555753"
     d="M 9 9 L 9 14 L 14 14 L 14 9 L 9 9 z "
     />
</svg>
